X:1
T:Title
%%score { ( 1 3 ) | ( 2 4 ) }
L:1/8
Q:1/4=100
M:3/4
K:D
V:1 treble nm="Grand Piano"
V:3 treble 
V:2 bass 
V:4 bass 
V:1
 [A,D]2 [CE]2 FG | A3 B A[CF] | D4 z2 | F6 | E2 F2 [E^G][EG] | [EA]3 [EB] [Ec][EGc] | %6
w: J.~Mountain * * *||||||
 [FB]2 z C ^G2 | [CA]6 | F2 G2 AA | d2 [DA]2 [G,DG][A,DF] | B2 E2 [A,^DF]2 | [B,EG]6 | %12
w: ||||||
 [A,CE]2 [A,DF]2 [A,CE][A,CE] | [A,DA]2 [A,DF]2 [B,D][^A,DE] | [A,DF]4[K:bass] [G,CE]2 | [F,D]6 |] %16
w: ||||
V:2
 [D,F,]2 [A,,A,]2 [D,A,D][E,A,D] | [F,A,D]3 [G,D] [F,A,D][A,,A,] | [F,B,]2 z2 z2 | [D,A,]6 | %4
 [C,A,]2 [D,A,D]2 [D,B,][D,B,] | [C,A,]3 [E,^G,] A,A, | z2 F2 [E,B,D]2 | [A,,A,]6 | %8
 [D,A,D]2 [E,A,D]2 [F,A,D][E,G,C] | [D,F,D]2 [=C,F,]2 B,,A,, | G,,2 G,2 F,2 | E,6 | %12
 A,,2 A,,2 G,,G,, | F,,2 F,,2 G,,G,, | A,,4 A,,2 | D,6 |] %16
V:3
 x6 | x6 | z2 ^G,2 E2 | x6 | x6 | x6 | D4 z2 | x6 | x6 | x6 | [B,D]4 z2 | x6 | x6 | x6 | %14
 x4[K:bass] x2 | x6 |] %16
V:4
 x6 | x6 | B,,2- [B,,D,]2 [A,,C,A,]2 | x6 | x6 | x6 | D,4 z2 | x6 | x6 | x6 | x6 | x6 | x6 | x6 | %14
 x6 | x6 |] %16

